X:1
T:Title
%%score ( 1 2 3 ) { 4 | ( 5 6 ) }
L:1/8
Q:1/4=110
M:4/4
K:G
V:1 treble nm="Grand Piano, Staff 1"
V:2 treble 
V:3 treble 
V:4 treble nm="Choir Pad, St. Luke (Heywood), CM"
V:5 bass 
V:6 bass 
V:1
 [GB]2 [Gc]2 [Gd]2 [Ge]2 | z4 c2 z2 | [DB]2 [Cc]2 [DE]2 [EA]2 | [EG]2 [DF]6 | %4
w: By~John~Heywood,~1867 * * *||||
 [DG]2 [DA]2 [DB]2 [Ec]2 | z4 A2 z2 | [FA]2 [GB]2 [Gc]2 [GA]2 | [FA]2 G6- | G2 z2 z4 |] %9
w: |||||
V:2
 x8 | [Gd]2 d2 z F [GB]2 | x8 | x8 | x8 | [EB]2 B2 z ^D [EG]2 | x8 | x8 | x8 |] %9
V:3
 x8 | z2 .G4 z2 | x8 | x8 | x8 | z2 .E4 z2 | x8 | x8 | x8 |] %9
V:4
 D2 C2 B,2 C2 | B,2[K:bass] A,2 A,2 G,2 | =F,2 E,2 ^G,2 A,2 | A,2 A,6 | G,2 F,2 G,2 E,2 | %5
 G,2 F,2 B,2 B,2 | D2 D2 E2 D2- | D2 B,6- | B,2 z2 z4 |] %9
V:5
 G,2 E,2 D,2 C,2 | G,2 D,2 D,2 G,,2 | ^G,,2 A,,2 B,,2 C,2 | ^C,2 D,6 | B,,2 D,2 B,,2 A,,2 | %5
 E,2 B,,2 B,,2 E,2 | D,2 G,2 C,2 D,2 | z C G,6- | G,2 z2 z4 |] %9
V:6
 x8 | x8 | x8 | x8 | x8 | x8 | x8 | D,2 z2 z4 | x8 |] %9

